src/images/advantages/square-student.svg

<svg width="102" height="104" viewBox="0 0 102 104" fill="none" xmlns="http://www.w3.org/2000/svg">
<g clip-path="url(#clip0)">
<g filter="url(#filter0_d)">
<path d="M25.8461 75.6381C31.0075 75.6381 60.8677 75.6381 66.0231 75.6381C66.2221 71.0563 65.8939 63.4544 63.0769 59.8363L62.9751 59.7063L56.8193 56.6156C56.9529 56.1647 57.0188 55.7517 57.0451 55.4481C57.0756 55.0838 57.0253 54.7414 56.8952 54.4314C55.8797 52.0013 53.7307 50.7228 52.5487 50.1777C52.9089 49.452 53.1412 48.6729 53.2533 47.8768C53.9224 47.6883 54.4607 47.158 54.6371 46.4506L55.3556 43.5316C55.4829 43.0166 55.403 42.4826 55.1293 42.0284C55.0116 41.8326 54.8593 41.6677 54.6885 41.5268C56.7143 36.9252 53.3213 32.5863 53.1364 32.3579C49.4618 28.3849 44.8197 29.1278 44.5743 29.1718C37.8751 30.5746 35.2899 35.7088 36.7494 41.7302C36.317 42.2092 36.1355 42.8765 36.2958 43.5309L37.0178 46.4531C37.1929 47.1553 37.7268 47.6837 38.3912 47.8744C38.5962 49.3323 39.2133 50.6509 40.1196 51.7136V54.0277C30.5062 58.9507 36.5975 55.8099 28.8934 59.7074C28.8782 59.7801 25.2785 63.6058 25.8136 74.9453L25.8461 75.6381ZM64.6271 74.1836H58.0147V71.4059L62.3881 61.3941C64.579 65.0305 64.6603 71.9737 64.6271 74.1836ZM55.6025 55.3245C55.3473 58.2558 53.7398 57.3698 52.7475 59.6282C51.967 58.7699 51.7323 57.7408 51.942 56.6392C52.3209 54.6164 51.0863 54.0157 51.3915 51.8903L51.4377 51.8416V51.8348C51.464 51.8055 51.7074 51.5156 51.7779 51.424C54.394 52.5644 55.6535 54.6854 55.6025 55.3245ZM41.568 53.0206C42.7825 53.8629 44.2485 54.3608 45.8253 54.3608C47.3104 54.3608 48.7208 53.9287 49.9301 53.133C50.0977 54.8038 50.7508 55.1383 50.5191 56.3679C50.4756 56.5961 50.4521 56.821 50.4381 57.0422L45.935 62.1175L40.1784 55.6276L41.568 54.902V53.0206H41.568ZM39.7575 46.8093V43.9953C39.7575 42.9591 39.7575 38.8481 39.7575 39.0511C40.4584 37.7549 41.4138 36.8149 42.6012 36.2514C45.7813 38.0507 49.4418 40.736 51.8967 43.4386C51.8944 46.8803 51.9064 46.8896 51.8835 47.1724L51.882 47.1904C51.6904 50.3156 49.1206 52.9062 45.8253 52.9062C42.6217 52.9062 39.9619 50.3909 39.7695 47.1594C39.7596 47.0436 39.7575 46.9275 39.7575 46.8093ZM38.8608 56.3295L45.935 64.3043L50.6843 58.9515C50.7929 59.2641 50.9451 59.5593 51.1193 59.8446L45.935 66.3277L38.2041 56.6591L38.8608 56.3295ZM53.3451 45.6388V43.392C53.4087 43.319 53.9486 42.6999 53.885 42.7729C53.9148 43.9105 54.0376 42.5678 53.3451 45.6388ZM44.8423 30.6012C45.1297 30.6191 48.99 30.014 52.041 33.3078C52.1611 33.4586 54.6447 36.6585 53.6469 40.159C53.3054 38.6014 52.7101 36.6053 51.7694 35.6527L50.7411 36.6768C51.67 37.6176 52.2801 40.4825 52.5125 41.9677C48.2518 37.5094 42.7558 34.6876 42.6804 34.6399C42.4048 34.8113 40.079 35.2535 38.3898 38.5365L38.3092 38.6935V41.1047C38.2366 41.1055 38.0237 41.1078 38.0963 41.107C37.023 35.9255 39.0783 31.8093 44.8423 30.6012ZM37.9436 42.6033L38.3092 44.0841V45.6406L37.7017 43.1818C37.6125 42.8153 37.884 42.6763 37.9436 42.6033ZM36.8787 57.3245L45.935 68.6509L52.0622 60.9874C52.7288 61.5839 53.0492 61.6685 54.4624 62.3952L53.9858 60.7784C53.8649 60.3679 54.3436 59.7095 54.6329 59.4069C55.2785 59.0567 55.8166 58.5573 56.2191 57.9407L61.2184 60.451L56.5664 71.1012V74.1836H35.3028V71.1008L30.6487 60.452L36.8787 57.3245ZM29.4804 61.3973L33.8545 71.4062V74.1836H27.2421C27.2089 71.9744 27.2909 65.0348 29.4804 61.3973Z" fill="#FF6B09"/>
</g>
</g>
<path d="M101 15V1H1V103H101V89" stroke="#FF6B09" stroke-width="2"/>
<defs>
<filter id="filter0_d" x="21.7593" y="29.0892" width="48.3111" height="54.5489" filterUnits="userSpaceOnUse" color-interpolation-filters="sRGB">
<feFlood flood-opacity="0" result="BackgroundImageFix"/>
<feColorMatrix in="SourceAlpha" type="matrix" values="0 0 0 0 0 0 0 0 0 0 0 0 0 0 0 0 0 0 127 0"/>
<feOffset dy="4"/>
<feGaussianBlur stdDeviation="2"/>
<feColorMatrix type="matrix" values="0 0 0 0 0 0 0 0 0 0 0 0 0 0 0 0 0 0 0.25 0"/>
<feBlend mode="normal" in2="BackgroundImageFix" result="effect1_dropShadow"/>
<feBlend mode="normal" in="SourceGraphic" in2="effect1_dropShadow" result="shape"/>
</filter>
<clipPath id="clip0">
<rect width="39.8298" height="48" fill="white" transform="translate(26 28)"/>
</clipPath>
</defs>
</svg>

<svg width="102" height="104" fill="none" xmlns="http://www.w3.org/2000/svg"><g filter="url(#filter0_d)" clip-path="url(#clip0)"><path d="M25.846 75.638h40.177c.2-4.582-.13-12.184-2.946-15.802l-.102-.13-6.156-3.09c.134-.451.2-.864.226-1.168a2.14 2.14 0 00-.15-1.017c-1.015-2.43-3.164-3.708-4.346-4.253.36-.726.592-1.505.704-2.301a1.975 1.975 0 001.384-1.426l.719-2.92a1.975 1.975 0 00-.227-1.503 1.967 1.967 0 00-.44-.501c2.025-4.602-1.368-8.94-1.553-9.17-3.674-3.972-8.316-3.23-8.562-3.185-6.699 1.403-9.284 6.537-7.825 12.558a1.977 1.977 0 00-.453 1.8l.722 2.923c.175.702.709 1.23 1.373 1.421a7.52 7.52 0 001.729 3.84v2.314c-9.614 4.923-3.523 1.782-11.227 5.68-.015.072-3.614 3.898-3.08 15.237l.033.693zm38.781-1.454h-6.612v-2.778l4.373-10.012c2.191 3.637 2.272 10.58 2.24 12.79zm-9.024-18.86c-.256 2.932-1.863 2.046-2.855 4.304-.781-.858-1.016-1.887-.806-2.989.379-2.023-.856-2.623-.55-4.749l.046-.048v-.007c.026-.03.27-.32.34-.411 2.616 1.14 3.876 3.261 3.825 3.9zm-14.035-2.303a7.449 7.449 0 008.362.112c.168 1.67.82 2.005.59 3.235a5.408 5.408 0 00-.082.674l-4.503 5.075-5.757-6.49 1.39-.725v-1.881zm-1.81-6.212v-2.814-4.944c.7-1.296 1.656-2.236 2.843-2.8 3.18 1.8 6.84 4.485 9.296 7.188-.003 3.441.01 3.45-.014 3.733l-.001.018c-.192 3.126-2.761 5.716-6.057 5.716-3.203 0-5.863-2.515-6.056-5.747a4.102 4.102 0 01-.011-.35zm-.897 9.52l7.074 7.975 4.75-5.352c.108.312.26.607.434.893l-5.184 6.483-7.73-9.669.656-.33zm14.484-10.69v-2.247l.54-.62c.03 1.139.153-.204-.54 2.867zM44.842 30.6c.288.018 4.148-.587 7.199 2.707.12.15 2.604 3.35 1.606 6.851-.342-1.558-.937-3.554-1.878-4.506l-1.028 1.024c.929.94 1.54 3.806 1.772 5.29-4.261-4.458-9.757-7.28-9.833-7.327-.275.171-2.601.614-4.29 3.896l-.08.157v2.412l-.214.002c-1.073-5.181.982-9.298 6.746-10.506zm-6.898 12.002l.365 1.481v1.557l-.607-2.46c-.09-.366.182-.505.242-.578zm-1.065 14.721l9.056 11.327 6.127-7.664c.667.597.987.681 2.4 1.408l-.476-1.617c-.121-.41.358-1.069.647-1.371a4.38 4.38 0 001.586-1.466l5 2.51-4.653 10.65v3.083H35.303V71.1l-4.654-10.649 6.23-3.127zm-7.399 4.073l4.375 10.01v2.777h-6.613c-.033-2.21.049-9.15 2.238-12.787z" /></g><path d="M101 15V1H1v102h100V89"  stroke-width="2"/><defs><clipPath id="clip0"><path fill="#fff" transform="translate(26 28)" d="M0 0h39.83v48H0z"/></clipPath><filter id="filter0_d" x="21.759" y="29.089" width="48.311" height="54.549" filterUnits="userSpaceOnUse" color-interpolation-filters="sRGB"><feFlood flood-opacity="0" result="BackgroundImageFix"/><feColorMatrix in="SourceAlpha" values="0 0 0 0 0 0 0 0 0 0 0 0 0 0 0 0 0 0 127 0"/><feOffset dy="4"/><feGaussianBlur stdDeviation="2"/><feColorMatrix values="0 0 0 0 0 0 0 0 0 0 0 0 0 0 0 0 0 0 0.25 0"/><feBlend in2="BackgroundImageFix" result="effect1_dropShadow"/><feBlend in="SourceGraphic" in2="effect1_dropShadow" result="shape"/></filter></defs></svg>
